dist/img/svg/air-purification/steps/tablet-board.svg

<svg width="42" height="58" viewBox="0 0 42 58" fill="none" xmlns="http://www.w3.org/2000/svg">
<path d="M29.2837 4.50461H25.5348C24.6157 -0.445105 17.4236 -0.328456 16.4609 4.50461H12.7164C11.5571 4.50461 10.6141 5.44006 10.6141 6.58978V6.7017H4.11015C1.84365 6.7017 0 8.53003 0 10.7774V53.8007C0 56.0482 1.84377 57.8764 4.11015 57.8764H37.8898C40.1563 57.8764 42 56.0481 42 53.8007V10.7774C42 8.52992 40.1562 6.7017 37.8898 6.7017H31.3859V6.58978C31.3859 5.44006 30.443 4.50461 29.2837 4.50461ZM12.7164 6.28768H17.2722C17.7688 6.28768 18.1713 5.87716 18.1713 5.38489C18.1713 1.81886 23.8175 1.58691 23.8175 5.39626C23.8175 5.88864 24.22 6.28779 24.7165 6.28779H29.2837C29.4514 6.28779 29.5879 6.42313 29.5879 6.58989C29.5879 7.18755 29.5876 10.6866 29.5875 12.0521C29.5875 12.2189 29.451 12.3542 29.2828 12.3542H12.7169C12.5491 12.3542 12.4127 12.2189 12.4127 12.0521C12.4127 11.9606 12.4122 6.49835 12.4122 6.58989C12.4122 6.42302 12.5488 6.28768 12.7164 6.28768ZM12.7164 14.1389H29.2836C30.4429 14.1389 31.3859 13.2039 31.3859 12.0542V12.052L35.9378 12.0229C36.3219 12.0229 36.634 12.3324 36.634 12.7133V51.8649C36.634 52.2459 36.3219 52.5554 35.9378 52.5554H6.06235C5.67823 52.5554 5.36609 52.2459 5.36609 51.8649V12.7132C5.36609 12.3323 5.67823 12.0228 6.06235 12.0228H10.6142V12.0541C10.6142 13.2039 11.5571 14.1389 12.7164 14.1389ZM37.89 8.48465C39.1647 8.48465 40.2021 9.51333 40.2021 10.7774V53.8007C40.2021 55.0648 39.1647 56.0935 37.89 56.0935H4.11015C2.83537 56.0935 1.79801 55.0648 1.79801 53.8007V10.7774C1.79801 9.51333 2.83537 8.48465 4.11015 8.48465H10.6141V10.2398H6.06224C4.68685 10.2398 3.56797 11.3494 3.56797 12.7132V51.8648C3.56797 53.2287 4.68697 54.3382 6.06224 54.3382H35.9376C37.313 54.3382 38.4319 53.2286 38.4319 51.8648V12.7132C38.4319 11.3493 37.3129 10.2398 35.9376 10.2398H31.3858V8.48465H37.89Z" fill="#5CCD6A"/>
<path d="M21.6382 5.00959C21.9709 4.66088 22.0003 4.14372 21.6382 3.74367C21.3054 3.41365 20.7032 3.41365 20.3616 3.74367C20.0103 4.12976 20.0208 4.65322 20.3616 5.00959C20.7269 5.353 21.2728 5.35323 21.6382 5.00959Z" fill="#5CCD6A"/>
<path d="M22.0016 20.7983H31.4885C31.985 20.7983 32.3876 20.3991 32.3876 19.9067C32.3876 19.4144 31.985 19.0152 31.4885 19.0152H22.0016C21.5051 19.0152 21.1025 19.4144 21.1025 19.9067C21.1025 20.3991 21.5052 20.7983 22.0016 20.7983Z" fill="#C3FF17"/>
<path d="M22.0016 24.6477H27.617C28.1136 24.6477 28.5161 24.2485 28.5161 23.7562C28.5161 23.2638 28.1136 22.8646 27.617 22.8646H22.0016C21.5051 22.8646 21.1025 23.2638 21.1025 23.7562C21.1025 24.2485 21.5052 24.6477 22.0016 24.6477Z" fill="#C3FF17"/>
<path d="M10.5 24.11C10.5 25.3472 11.5053 26.3537 12.7428 26.3537H16.2572C17.4946 26.3537 18.5 25.3473 18.5 24.11V20.5927C18.5 19.3553 17.4948 18.3487 16.2572 18.3487H12.7428C11.5054 18.3487 10.5 19.3551 10.5 20.5927V24.11Z" fill="#C3FF17" stroke="#5CCD6A"/>
<path d="M22.0016 31.768H31.4885C31.985 31.768 32.3876 31.3688 32.3876 30.8765C32.3876 30.3841 31.985 29.9849 31.4885 29.9849H22.0016C21.5051 29.9849 21.1025 30.3841 21.1025 30.8765C21.1027 31.3688 21.5052 31.768 22.0016 31.768Z" fill="#C3FF17"/>
<path d="M22.0016 35.6174H27.617C28.1136 35.6174 28.5161 35.2183 28.5161 34.7259C28.5161 34.2335 28.1136 33.8344 27.617 33.8344H22.0016C21.5051 33.8344 21.1025 34.2335 21.1025 34.7259C21.1027 35.2183 21.5052 35.6174 22.0016 35.6174Z" fill="#C3FF17"/>
<path d="M18.5 31.6006V31.6005C18.4999 30.3631 17.4947 29.3565 16.2572 29.3565H12.7428C11.5053 29.3565 10.5 30.3631 10.5 31.6006V35.1179C10.5 36.355 11.5053 37.3615 12.7428 37.3615H16.2572C17.4946 37.3615 18.5 36.355 18.5 35.1179V31.6006Z" fill="#C3FF17" stroke="#5CCD6A"/>
<path d="M22.0016 42.7378H31.4885C31.985 42.7378 32.3876 42.3386 32.3876 41.8462C32.3876 41.3539 31.985 40.9547 31.4885 40.9547H22.0016C21.5051 40.9547 21.1025 41.3539 21.1025 41.8462C21.1027 42.3386 21.5052 42.7378 22.0016 42.7378Z" fill="#C3FF17"/>
<path d="M22.0016 46.5872H27.617C28.1136 46.5872 28.5161 46.1881 28.5161 45.6957C28.5161 45.2033 28.1136 44.8041 27.617 44.8041H22.0016C21.5051 44.8041 21.1025 45.2033 21.1025 45.6957C21.1027 46.1881 21.5052 46.5872 22.0016 46.5872Z" fill="#C3FF17"/>
<path d="M18.5 42.6084V42.6083C18.4999 41.3709 17.4947 40.3643 16.2572 40.3643H12.7428C11.5054 40.3643 10.5 41.3707 10.5 42.6084V46.1257C10.5 47.3628 11.5053 48.3693 12.7428 48.3693H16.2572C17.4946 48.3693 18.5 47.3629 18.5 46.1257V42.6084Z" fill="#C3FF17" stroke="#5CCD6A"/>
</svg>

<svg width="42" height="58" fill="none" xmlns="http://www.w3.org/2000/svg"><path d="M29.284 4.505h-3.75c-.918-4.95-8.11-4.833-9.073 0h-3.745a2.096 2.096 0 00-2.102 2.085v.112H4.11C1.844 6.702 0 8.53 0 10.777v43.024c0 2.247 1.844 4.075 4.11 4.075h33.78c2.266 0 4.11-1.828 4.11-4.075V10.777c0-2.247-1.844-4.075-4.11-4.075h-6.504V6.59c0-1.15-.943-2.085-2.102-2.085zM12.716 6.288h4.556c.497 0 .9-.41.9-.903 0-3.566 5.645-3.798 5.645.011 0 .493.403.892.9.892h4.567c.167 0 .304.135.304.302v5.462a.303.303 0 01-.305.302H12.717a.303.303 0 01-.304-.302V6.59c0-.167.136-.302.303-.302zm0 7.85h16.568a2.095 2.095 0 002.102-2.084v-.002l4.552-.03c.384 0 .696.31.696.691v39.152c0 .38-.312.69-.696.69H6.062a.694.694 0 01-.696-.69V12.713c0-.38.312-.69.696-.69h4.552v.031c0 1.15.943 2.085 2.102 2.085zM37.89 8.486a2.305 2.305 0 012.312 2.292v43.024a2.305 2.305 0 01-2.312 2.292H4.11a2.305 2.305 0 01-2.312-2.292V10.777A2.305 2.305 0 014.11 8.485h6.504v1.755H6.062c-1.375 0-2.494 1.11-2.494 2.473v39.152c0 1.364 1.119 2.473 2.494 2.473h29.876c1.375 0 2.494-1.11 2.494-2.473V12.713c0-1.364-1.12-2.473-2.494-2.473h-4.552V8.485h6.504z" fill="#5CCD6A"/><path d="M21.638 5.01c.333-.35.362-.866 0-1.266-.333-.33-.935-.33-1.276 0-.352.386-.341.91 0 1.266a.92.92 0 001.276 0z" fill="#5CCD6A"/><path d="M22.002 20.798h9.486c.497 0 .9-.399.9-.891a.895.895 0 00-.9-.892h-9.486c-.497 0-.9.4-.9.892s.403.891.9.891zm0 3.85h5.615c.497 0 .9-.4.9-.892a.895.895 0 00-.9-.891h-5.615c-.497 0-.9.399-.9.891s.403.892.9.892z" fill="#C3FF17"/><path d="M10.5 24.11a2.245 2.245 0 002.243 2.244h3.514A2.245 2.245 0 0018.5 24.11v-3.517a2.245 2.245 0 00-2.243-2.244h-3.514a2.245 2.245 0 00-2.243 2.244v3.517z" fill="#C3FF17" stroke="#5CCD6A"/><path d="M22.002 31.768h9.486c.497 0 .9-.4.9-.892a.895.895 0 00-.9-.891h-9.486c-.497 0-.9.4-.9.892s.403.891.9.891zm0 3.849h5.615c.497 0 .9-.399.9-.891a.895.895 0 00-.9-.892h-5.615c-.497 0-.9.4-.9.892s.403.891.9.891z" fill="#C3FF17"/><path d="M18.5 31.6v0a2.245 2.245 0 00-2.243-2.244h-3.514a2.245 2.245 0 00-2.243 2.245v3.517a2.245 2.245 0 002.243 2.243h3.514a2.245 2.245 0 002.243-2.243V31.6z" fill="#C3FF17" stroke="#5CCD6A"/><path d="M22.002 42.738h9.486c.497 0 .9-.4.9-.892a.895.895 0 00-.9-.891h-9.486c-.497 0-.9.399-.9.891 0 .493.403.892.9.892zm0 3.849h5.615c.497 0 .9-.399.9-.891a.895.895 0 00-.9-.892h-5.615c-.497 0-.9.4-.9.892s.403.891.9.891z" fill="#C3FF17"/><path d="M18.5 42.608v0a2.245 2.245 0 00-2.243-2.244h-3.514a2.245 2.245 0 00-2.243 2.244v3.518a2.245 2.245 0 002.243 2.243h3.514a2.245 2.245 0 002.243-2.243v-3.518z" fill="#C3FF17" stroke="#5CCD6A"/></svg>
